icons-dark/actions/symbolic/align-vertical-top-symbolic.svg

<svg width="16" height="16" version="1.1" viewBox="0 0 4.233 4.233" xmlns="http://www.w3.org/2000/svg">
 <g fill="#dedede">
  <path d="m4.233 0.52912h-4.233v0.26488h0.53v2.778c0 0.073 0.058 0.132 0.131 0.132h1.059c0.072902 0 0.132-0.059098 0.132-0.132v-2.778h0.265v1.984c0 0.073 0.059 0.132 0.132 0.132h1.058c0.073292 5.553e-4 0.133-0.058706 0.133-0.132v-1.984h0.793zm-1.058 0.26488v1.852h-0.794v-1.852zm-1.587 0v2.646h-0.794v-2.646z"/>
 </g>
</svg>

<svg xmlns="http://www.w3.org/2000/svg" width="16" height="16" viewBox="0 0 4.233 4.233"><g fill="#ffffff"><path style="marker:none" d="M4.233.265H0v.529h.53v2.778c0 .073.058.132.131.132H1.72a.132.132 0 0 0 .132-.132V.794h.265v1.984c0 .073.059.132.132.132h1.058a.132.132 0 0 0 .133-.132V.794h.793zM3.175.794v1.852h-.794V.794zm-1.587 0V3.44H.794V.794z"/><path d="M3.175.53h-.794v2.116h.794zm-1.587 0H.794v2.91h.794z" opacity=".1" fill-opacity=".931"/></g></svg>
